humanity-icon-theme/Humanity/actions/48/sleep.svg

<?xml version="1.0" encoding="UTF-8" standalone="no"?>
<!-- Created with Inkscape (http://www.inkscape.org/) -->

<svg
   xmlns:svg="http://www.w3.org/2000/svg"
   xmlns="http://www.w3.org/2000/svg"
   xmlns:xlink="http://www.w3.org/1999/xlink"
   version="1.1"
   width="48"
   height="48"
   id="svg2439">
  <defs
     id="defs2441">
    <linearGradient
       id="linearGradient5238">
      <stop
         id="stop5240"
         style="stop-color:white;stop-opacity:1"
         offset="0" />
      <stop
         id="stop5242"
         style="stop-color:#a0a0a0;stop-opacity:1"
         offset="1" />
    </linearGradient>
    <radialGradient
       cx="11.3292"
       cy="10.58397"
       r="15.532059"
       fx="11.3292"
       fy="10.58397"
       id="radialGradient3233"
       xlink:href="#linearGradient5238"
       gradientUnits="userSpaceOnUse" />
    <linearGradient
       id="linearGradient42174">
      <stop
         id="stop42176"
         style="stop-color:#a0a0a0;stop-opacity:1"
         offset="0" />
      <stop
         id="stop42178"
         style="stop-color:white;stop-opacity:1"
         offset="1" />
    </linearGradient>
    <linearGradient
       x1="6.342216"
       y1="7.7893324"
       x2="22.218424"
       y2="25.884274"
       id="linearGradient3231"
       xlink:href="#linearGradient42174"
       gradientUnits="userSpaceOnUse" />
    <linearGradient
       id="linearGradient2145">
      <stop
         id="stop2147"
         style="stop-color:#fffffd;stop-opacity:1"
         offset="0" />
      <stop
         id="stop2149"
         style="stop-color:#cbcbc9;stop-opacity:1"
         offset="1" />
    </linearGradient>
    <radialGradient
       cx="11.901996"
       cy="10.045444"
       r="29.292715"
       fx="11.901996"
       fy="10.045444"
       id="radialGradient3229"
       xlink:href="#linearGradient2145"
       gradientUnits="userSpaceOnUse" />
    <linearGradient
       id="linearGradient10691">
      <stop
         id="stop10693"
         style="stop-color:black;stop-opacity:1"
         offset="0" />
      <stop
         id="stop10695"
         style="stop-color:black;stop-opacity:0"
         offset="1" />
    </linearGradient>
    <radialGradient
       cx="6.702713"
       cy="73.615715"
       r="7.228416"
       fx="6.702713"
       fy="73.615715"
       id="radialGradient3227"
       xlink:href="#linearGradient10691"
       gradientUnits="userSpaceOnUse"
       gradientTransform="scale(1.902215,0.525703)" />
    <linearGradient
       id="linearGradient37935">
      <stop
         id="stop37937"
         style="stop-color:#7c7c7c;stop-opacity:1"
         offset="0" />
      <stop
         id="stop37939"
         style="stop-color:#242424;stop-opacity:1"
         offset="1" />
    </linearGradient>
    <radialGradient
       cx="8.7468252"
       cy="6.8283234"
       r="29.889715"
       fx="8.7468252"
       fy="6.8283234"
       id="radialGradient3225"
       xlink:href="#linearGradient37935"
       gradientUnits="userSpaceOnUse" />
    <linearGradient
       id="linearGradient2152">
      <stop
         id="stop2154"
         style="stop-color:#9aa29a;stop-opacity:1"
         offset="0" />
      <stop
         id="stop2156"
         style="stop-color:#b5beb5;stop-opacity:1"
         offset="1" />
    </linearGradient>
    <linearGradient
       x1="40.546875"
       y1="1.125"
       x2="47.375"
       y2="37.75"
       id="linearGradient2449"
       xlink:href="#linearGradient13678"
       gradientUnits="userSpaceOnUse"
       gradientTransform="matrix(0.8942788,0,0,0.8942788,5.0323663,0.02645547)" />
    <linearGradient
       id="linearGradient13678">
      <stop
         id="stop13680"
         style="stop-color:white;stop-opacity:1"
         offset="0" />
      <stop
         id="stop13682"
         style="stop-color:white;stop-opacity:0"
         offset="1" />
    </linearGradient>
    <linearGradient
       x1="40.546875"
       y1="1.125"
       x2="47.375"
       y2="37.75"
       id="linearGradient2444"
       xlink:href="#linearGradient13678"
       gradientUnits="userSpaceOnUse"
       gradientTransform="matrix(0.5078153,0,0,0.5078153,11.546533,16.52496)" />
    <linearGradient
       x1="8.9156475"
       y1="37.197018"
       x2="9.8855038"
       y2="52.090679"
       id="linearGradient2511"
       xlink:href="#linearGradient2152"
       gradientUnits="userSpaceOnUse"
       gradientTransform="matrix(3.1132961,0,0,0.9664172,-31.84632,-19.049003)" />
  </defs>
  <g
     id="layer1">
    <path
       d="M 18.458465,1.8787696 4.146104,18.515359 5.4005712,19.754341 18.458465,1.8787696 z"
       id="path14341"
       style="fill:url(#linearGradient2511);fill-opacity:1;fill-rule:evenodd;stroke:none;stroke-width:1;marker:none;visibility:visible;display:inline;overflow:visible" />
    <path
       d="M 18.338456,1.7891477 5.5750808,19.488013 7.3984311,21.097861 18.338456,1.7891477 z"
       id="path18921"
       style="fill:#fefefe;fill-opacity:1;fill-rule:evenodd;stroke:none" />
    <path
       d="m 31.160714,16.910715 a 14.910714,14.910714 0 1 1 -29.8214281,0 14.910714,14.910714 0 1 1 29.8214281,0 z"
       transform="matrix(1.4258278,0,0,1.42585,0.3132332,-1.4131567)"
       id="path27786"
       style="fill:url(#radialGradient3225);fill-opacity:1;fill-rule:evenodd;stroke:#333;stroke-width:0.70134151;stroke-linecap:round;stroke-linejoin:round;stroke-miterlimit:4;stroke-opacity:1;stroke-dasharray:none;stroke-dashoffset:0" />
    <path
       d="m 26.5,38.700001 a 13.75,3.8 0 1 1 -27.5,0 13.75,3.8 0 1 1 27.5,0 z"
       transform="matrix(1.6473388,0,0,1.8303764,2.9964303,-29.790998)"
       id="path10689"
       style="opacity:0.4;fill:url(#radialGradient3227);fill-opacity:1;fill-rule:nonzero;stroke:none;stroke-width:0.5758884;marker:none;visibility:visible;display:inline;overflow:visible" />
    <path
       d="m 31.160714,16.910715 a 14.910714,14.910714 0 1 1 -29.8214281,0 14.910714,14.910714 0 1 1 29.8214281,0 z"
       transform="matrix(1.1869436,0,0,1.1869751,4.1964498,2.6278264)"
       id="path35549"
       style="fill:url(#radialGradient3229);fill-opacity:1;fill-rule:evenodd;stroke:url(#linearGradient3231);stroke-width:0.84248883;stroke-linecap:round;stroke-linejoin:bevel;stroke-miterlimit:4;stroke-opacity:1;stroke-dasharray:none;stroke-dashoffset:0" />
    <path
       d="m 31.160714,16.910715 a 14.910714,14.910714 0 1 1 -29.8214281,0 14.910714,14.910714 0 1 1 29.8214281,0 z"
       transform="matrix(1.3560116,0,0,1.3576612,1.4059117,-0.2708017)"
       id="path10651"
       style="opacity:0.4;fill:none;stroke:url(#radialGradient3233);stroke-width:0.73700869;stroke-linecap:round;stroke-linejoin:round;stroke-miterlimit:4;stroke-opacity:1;stroke-dasharray:none;stroke-dashoffset:0" />
    <path
       d="m 8.3653383,22.517418 c 2.9877557,0 3.3660627,-0.08596 3.3660627,-0.08596"
       id="path2291"
       style="fill:#616161;fill-opacity:1;fill-rule:evenodd;stroke:#5f5f5f;stroke-width:1;stroke-linecap:round;stroke-linejoin:miter;stroke-miterlimit:4;stroke-opacity:1;stroke-dasharray:none" />
    <path
       d="m 35.539262,22.517418 c 2.987758,0 3.366066,-0.08596 3.366066,-0.08596"
       id="path2296"
       style="fill:#1f1f1f;fill-opacity:1;fill-rule:evenodd;stroke:#1f1f1f;stroke-width:1;stroke-linecap:round;stroke-linejoin:miter;stroke-miterlimit:4;stroke-opacity:1;stroke-dasharray:none" />
    <path
       d="m 23.565256,37.631119 c 0,-2.987754 -0.08596,-3.366062 -0.08596,-3.366062"
       id="path2306"
       style="fill:#131313;fill-opacity:1;fill-rule:evenodd;stroke:#121212;stroke-width:1;stroke-linecap:round;stroke-linejoin:miter;stroke-miterlimit:4;stroke-opacity:1;stroke-dasharray:none" />
    <path
       d="m 23.565256,10.683621 c 0,-2.9877957 -0.08596,-3.3661081 -0.08596,-3.3661081"
       id="path2308"
       style="fill:#1f1f1f;fill-opacity:1;fill-rule:evenodd;stroke:#727272;stroke-width:1;stroke-linecap:round;stroke-linejoin:miter;stroke-miterlimit:4;stroke-opacity:1;stroke-dasharray:none" />
    <g
       transform="matrix(0.6192326,0,0,0.6192326,9.765907,8.6245378)"
       id="g2318"
       style="stroke-width:1.61490202;stroke-linecap:round;stroke-miterlimit:4;stroke-dasharray:none">
      <path
         d="M 21.168246,23.652869 40.199004,4.6221125"
         id="path2312"
         style="fill:none;stroke:black;stroke-width:1.61490202;stroke-linecap:round;stroke-linejoin:miter;stroke-miterlimit:4;stroke-opacity:1;stroke-dasharray:none" />
      <path
         d="M 24.25811,23.793317 11.547531,11.082739"
         id="path2314"
         style="fill:none;stroke:black;stroke-width:1.61490202;stroke-linecap:round;stroke-linejoin:miter;stroke-miterlimit:4;stroke-opacity:1;stroke-dasharray:none" />
      <path
         d="M 21.589592,22.66973 43.260774,16.862955"
         id="path2316"
         style="fill:red;fill-rule:evenodd;stroke:red;stroke-width:1.61490202;stroke-linecap:round;stroke-linejoin:miter;stroke-miterlimit:4;stroke-opacity:1;stroke-dasharray:none" />
    </g>
    <path
       d="M 47.5,3.503442 40.762237,11.5 47.5,11.5 l 0,3 -12,0 0,-1 8.343784,-9.9217439 -8.343784,0 0,-3.0782561 12,0 0,3.003442 z"
       id="path13687"
       style="font-size:10px;font-style:normal;font-variant:normal;font-weight:normal;font-stretch:normal;line-height:100%;writing-mode:lr-tb;text-anchor:start;fill:#5c8ebd;fill-opacity:1;stroke:#356ca0;stroke-width:1;stroke-linecap:butt;stroke-linejoin:miter;stroke-miterlimit:4;stroke-opacity:1;stroke-dasharray:none;font-family:Segoe" />
    <path
       d="m 36.5,1.5 0,1.131821 8.662623,0 c 0.122007,0.00747 0.230291,0.080718 0.282618,0.1911869 0.05233,0.1104686 0.04041,0.2406579 -0.0311,0.3397911 L 36.736794,13.547153 46.5,13.515129 l 0,-1.051418 -7.069421,0 c -0.127036,0.0027 -0.244676,-0.06667 -0.303856,-0.179108 -0.05918,-0.112441 -0.04973,-0.24867 0.02439,-0.35187 L 46.5,3.1558354 46.5,1.5 l -10,0 z"
       id="path13676"
       style="font-size:10px;font-style:normal;font-variant:normal;font-weight:normal;font-stretch:normal;line-height:100%;writing-mode:lr-tb;text-anchor:start;opacity:0.21348314;fill:#5c8ebd;fill-opacity:1;stroke:url(#linearGradient2449);stroke-width:0.89427876px;stroke-linecap:butt;stroke-linejoin:miter;stroke-opacity:1;font-family:Segoe" />
    <path
       d="M 36.5,18.499363 31.835704,23.5 36.5,23.5 l 0,2 -8,0 0,-1.244258 5.329815,-5.713896 -5.329815,0 0,-2.041846 8,0 0,1.999363 z"
       id="path13696"
       style="font-size:10px;font-style:normal;font-variant:normal;font-weight:normal;font-stretch:normal;line-height:100%;writing-mode:lr-tb;text-anchor:start;fill:#5c8ebd;fill-opacity:1;stroke:#356ca0;stroke-width:1;stroke-linecap:butt;stroke-linejoin:miter;stroke-miterlimit:4;stroke-opacity:1;stroke-dasharray:none;font-family:Segoe" />
    <path
       d="m 35.5,24.5 c -1.84377,0.0419 -4.087433,-0.02313 -5.881031,-0.02313 L 35.5,18.160583 35.5,17.5 l -6,0"
       id="path13700"
       style="font-size:10px;font-style:normal;font-variant:normal;font-weight:normal;font-stretch:normal;line-height:100%;writing-mode:lr-tb;text-anchor:start;opacity:0.21348314;fill:none;stroke:url(#linearGradient2444);stroke-width:0.89399999;stroke-linecap:square;stroke-linejoin:miter;stroke-miterlimit:4;stroke-opacity:1;stroke-dasharray:none;font-family:Segoe" />
  </g>
</svg>

<?xml version="1.0" encoding="UTF-8" standalone="no"?>
<!-- Created with Inkscape (http://www.inkscape.org/) -->
<svg id="svg2439" xmlns="http://www.w3.org/2000/svg" height="48" width="48" version="1.1" xmlns:xlink="http://www.w3.org/1999/xlink">
 <defs id="defs2441">
  <radialGradient id="radialGradient3233" gradientUnits="userSpaceOnUse" cy="10.584" cx="11.329" r="15.532">
   <stop id="stop5240" style="stop-color:#fff" offset="0"/>
   <stop id="stop5242" style="stop-color:#a0a0a0" offset="1"/>
  </radialGradient>
  <linearGradient id="linearGradient3231" y2="25.884" gradientUnits="userSpaceOnUse" x2="22.218" y1="7.7893" x1="6.3422">
   <stop id="stop42176" style="stop-color:#a0a0a0" offset="0"/>
   <stop id="stop42178" style="stop-color:#fff" offset="1"/>
  </linearGradient>
  <radialGradient id="radialGradient3229" gradientUnits="userSpaceOnUse" cy="10.045" cx="11.902" r="29.293">
   <stop id="stop2147" style="stop-color:#fffffd" offset="0"/>
   <stop id="stop2149" style="stop-color:#cbcbc9" offset="1"/>
  </radialGradient>
  <radialGradient id="radialGradient3227" gradientUnits="userSpaceOnUse" cy="73.616" cx="6.7027" gradientTransform="scale(1.9022 .52570)" r="7.2284">
   <stop id="stop10693" offset="0"/>
   <stop id="stop10695" style="stop-opacity:0" offset="1"/>
  </radialGradient>
  <radialGradient id="radialGradient3225" gradientUnits="userSpaceOnUse" cy="6.8283" cx="8.7468" r="29.89">
   <stop id="stop37937" style="stop-color:#7c7c7c" offset="0"/>
   <stop id="stop37939" style="stop-color:#242424" offset="1"/>
  </radialGradient>
  <linearGradient id="linearGradient2449" y2="37.75" xlink:href="#linearGradient13678" gradientUnits="userSpaceOnUse" x2="47.375" gradientTransform="matrix(.89428 0 0 .89428 5.0324 .026455)" y1="1.125" x1="40.547"/>
  <linearGradient id="linearGradient13678">
   <stop id="stop13680" style="stop-color:#fff" offset="0"/>
   <stop id="stop13682" style="stop-color:#fff;stop-opacity:0" offset="1"/>
  </linearGradient>
  <linearGradient id="linearGradient2444" y2="37.75" xlink:href="#linearGradient13678" gradientUnits="userSpaceOnUse" x2="47.375" gradientTransform="matrix(.50782 0 0 .50782 11.547 16.525)" y1="1.125" x1="40.547"/>
  <linearGradient id="linearGradient2511" y2="52.091" gradientUnits="userSpaceOnUse" x2="9.8855" gradientTransform="matrix(3.1133 0 0 .96642 -31.846 -19.049)" y1="37.197" x1="8.9156">
   <stop id="stop2154" style="stop-color:#9aa29a" offset="0"/>
   <stop id="stop2156" style="stop-color:#b5beb5" offset="1"/>
  </linearGradient>
 </defs>
 <g id="layer1">
  <path id="path14341" style="fill-rule:evenodd;fill:url(#linearGradient2511)" d="m18.458 1.8788-14.312 16.636 1.2546 1.239 13.057-17.875z"/>
  <path id="path18921" style="fill:#fefefe;fill-rule:evenodd" d="m18.338 1.7891-12.763 17.699 1.8234 1.61 10.94-19.309z"/>
  <path id="path27786" style="stroke-linejoin:round;fill-rule:evenodd;stroke:#333;stroke-linecap:round;stroke-width:.70134;fill:url(#radialGradient3225)" d="m31.161 16.911a14.911 14.911 0 1 1 -29.821 0 14.911 14.911 0 1 1 29.821 0z" transform="matrix(1.4258 0 0 1.4258 .31323 -1.4132)"/>
  <path id="path10689" style="opacity:.4;fill:url(#radialGradient3227)" d="m26.5 38.7a13.75 3.8 0 1 1 -27.5 0 13.75 3.8 0 1 1 27.5 0z" transform="matrix(1.6473 0 0 1.8304 2.9964 -29.791)"/>
  <path id="path35549" style="stroke-linejoin:bevel;fill-rule:evenodd;stroke:url(#linearGradient3231);stroke-linecap:round;stroke-width:.84249;fill:url(#radialGradient3229)" d="m31.161 16.911a14.911 14.911 0 1 1 -29.821 0 14.911 14.911 0 1 1 29.821 0z" transform="matrix(1.1869 0 0 1.187 4.1964 2.6278)"/>
  <path id="path10651" style="opacity:.4;stroke-linejoin:round;stroke:url(#radialGradient3233);stroke-linecap:round;stroke-width:.73701;fill:none" d="m31.161 16.911a14.911 14.911 0 1 1 -29.821 0 14.911 14.911 0 1 1 29.821 0z" transform="matrix(1.356 0 0 1.3577 1.4059 -.27080)"/>
  <path id="path2291" style="fill-rule:evenodd;stroke:#5f5f5f;stroke-linecap:round;fill:#616161" d="m8.3653 22.517c2.9878 0 3.3661-0.08596 3.3661-0.08596"/>
  <path id="path2296" style="fill-rule:evenodd;stroke:#1f1f1f;stroke-linecap:round;fill:#1f1f1f" d="m35.539 22.517c2.9878 0 3.3661-0.08596 3.3661-0.08596"/>
  <path id="path2306" style="fill-rule:evenodd;stroke:#121212;stroke-linecap:round;fill:#131313" d="m23.565 37.631c0-2.9878-0.08596-3.3661-0.08596-3.3661"/>
  <path id="path2308" style="fill-rule:evenodd;stroke:#727272;stroke-linecap:round;fill:#1f1f1f" d="m23.565 10.684c0-2.9878-0.08596-3.3661-0.08596-3.3661"/>
  <g id="g2318" style="stroke-width:1.6149;stroke-linecap:round" transform="matrix(.61923 0 0 .61923 9.7659 8.6245)">
   <path id="path2312" style="stroke:#000;stroke-linecap:round;stroke-width:1.6149;fill:none" d="m21.168 23.653 19.031-19.031"/>
   <path id="path2314" style="stroke:#000;stroke-linecap:round;stroke-width:1.6149;fill:none" d="m24.258 23.793-12.71-12.71"/>
   <path id="path2316" style="fill-rule:evenodd;stroke:red;stroke-linecap:round;stroke-width:1.6149;fill:red" d="m21.59 22.67 21.671-5.807"/>
  </g>
  <path id="path13687" style="stroke:#356ca0;fill:#5c8ebd" d="m47.5 3.5034-6.738 7.9966h6.738v3h-12v-1l8.3438-9.9217h-8.3438v-3.0783h12v3.0034z"/>
  <path id="path13676" style="opacity:.21348;stroke:url(#linearGradient2449);stroke-width:.89428px;fill:#5c8ebd" d="m36.5 1.5v1.1318h8.6626c0.12201 0.00747 0.23029 0.080718 0.28262 0.19119s0.04041 0.24066-0.0311 0.33979l-8.678 10.384 9.763-0.032v-1.0514h-7.0694c-0.12704 0.0027-0.24468-0.06667-0.30386-0.17911s-0.04973-0.24867 0.02439-0.35187l7.348-8.7772v-1.6558h-10z"/>
  <path id="path13696" style="stroke:#356ca0;fill:#5c8ebd" d="m36.5 18.499-4.664 5.001h4.664v2h-8v-1.2443l5.3298-5.7139h-5.3298v-2.0418h8v1.9994z"/>
  <path id="path13700" style="opacity:.21348;stroke:url(#linearGradient2444);stroke-linecap:square;stroke-width:0.894;fill:none" d="m35.5 24.5c-1.8438 0.0419-4.0874-0.02313-5.881-0.02313l5.881-6.316v-0.661h-6"/>
 </g>
</svg>
